src/images/svg/synthetic-indices-nav.svg

<svg xmlns="http://www.w3.org/2000/svg" viewBox="0 0 32 32"><g fill="none" fill-rule="evenodd"><path fill="#33658A" d="M26 0a6 6 0 016 6v20a6 6 0 01-6 6H6a6 6 0 01-6-6V6a6 6 0 016-6h20z"/><path fill="#FFF" d="M13 10l1-.5-1-3h9L16 15l-1-2.5-1 .5 1 2.5H6L12 7zm-7.5 6.5H15L13 19l1 .5 2-2.5 4 8.5h-9.5l2-3-1-.5-2 3zM23 6.5l4 9h-4v1h4L21 25l-4.5-9z"/></g></svg>

<svg xmlns="http://www.w3.org/2000/svg" viewBox="0 0 32 32">
    <g fill="none" fill-rule="evenodd">
        <path fill="#33658A" d="M26 0c3.314 0 6 2.686 6 6v20c0 3.314-2.686 6-6 6H6c-3.314 0-6-2.686-6-6V6c0-3.314 2.686-6 6-6h20z"/>
        <path fill="#FFF" d="M13 10L14 9.5 13 6.5 22 6.5 16 15 15 12.5 14 13 15 15.5 6 15.5 12 7zM5.5 16.5L15 16.5 13 19 14 19.5 16 17 20 25.5 10.5 25.5 12.5 22.5 11.5 22 9.5 25zM23 6.5L27 15.5 23 15.5 23 16.5 27 16.5 21 25 16.5 16z"/>
    </g>
</svg>
